images/icons/modal-close.svg

<svg width="20" height="20" viewBox="0 0 20 20" fill="none" xmlns="http://www.w3.org/2000/svg">
<path d="M16.8113 4.10362L15.519 2.81131L9.81128 8.519L4.10359 2.81131L2.81128 4.10362L8.51897 9.81131L2.81128 15.519L4.10359 16.8113L9.81128 11.1036L15.519 16.8113L16.8113 15.519L11.1036 9.81131L16.8113 4.10362Z" fill="black"/>
</svg>

<svg xmlns="http://www.w3.org/2000/svg" width="20" height="20" fill="none" viewBox="0 0 20 20"><path fill="#000" d="m16.81 4.1-1.3-1.29-5.7 5.7-5.7-5.7-1.3 1.3 5.7 5.7-5.7 5.7 1.3 1.3 5.7-5.7 5.7 5.7 1.3-1.3-5.7-5.7z"/></svg>
